X: 07055
T: HILARY'S JIG #2
C: Bob McQuillen 9 Apr 89
B: Bob's Note Book 7 #55
%R: jig
Z: 2020 John Chambers <jc:trillian.mit.edu>
M: 6/8
L: 1/8
K: G	% and Em
E \
| DEG GBd | cde cBG | ece dBd | gdB AGE |\
| DEG GBd | ece dBd | cde dgB | AGF G2 :|
|: A \
| BGE EGB | AFD DGF | EGB AGE | EDB, DGF |\
| EFG FGA | GBd edB | dBG AFD | EFE  E2 :|
%%begintext align
%% Here's a little tune
%% for Hilary Culhane to dance to. Hilary is
%% fiddler John's wife, from Seattle, WA., and she
%% was awfully nice to me when I was out that
%% way playing music with her good husband
%% last month.
%%endtext

%%sep 1 1 500

%%sep 1 1 500

